src/img/projects/grader.svg

<?xml version="1.0" encoding="UTF-8"?>
<svg width="90px" height="90px" viewBox="0 0 90 90" version="1.1" xmlns="http://www.w3.org/2000/svg" xmlns:xlink="http://www.w3.org/1999/xlink">
    <!-- Generator: Sketch 41.2 (35397) - http://www.bohemiancoding.com/sketch -->
    <title>community/card/logo/grader</title>
    <desc>Created with Sketch.</desc>
    <defs>
        <path d="M50.1864034,54.7275391 C45.6201172,65.1035156 39.1055368,74.2021484 25.5355845,74.2021484 C11.9656322,74.2021484 5.48214423,64.3924248 0.884765625,55.9414063 L2.4324,2.54933673 L50.1864034,0.2504446 L50.1864034,51.078125 L50.1864034,54.7275391 Z" id="path-1"></path>
    </defs>
    <g id="Symbols" stroke="none" stroke-width="1" fill="none" fill-rule="evenodd">
        <g id="community/card/logo/grader">
            <polyline id="Fill-27" fill="#FFFFFF" points="73.7016 77.3472347 67.407 83.555898 56.7378 73.0318571 63.0321 66.822898 73.7016 77.3472347"></polyline>
            <path d="M76.0114,85.1838367 L75.3379,85.8481735 C73.786,87.3792551 71.2693,87.3792551 69.7171,85.8481735 L68.407,84.555898 L74.7016,78.3472347 L76.0114,79.6395102 C77.5636,81.1702959 77.5636,83.6527551 76.0114,85.1838367" id="Fill-30" fill="#FFFFFF"></path>
            <path d="M40.1376196,19.8272775 C31.8833426,19.9180922 24.1370459,23.1312275 18.2902634,28.8987864 C12.3585645,34.749782 9.09195746,42.5292684 9.09195746,50.8039657 C9.09195746,59.0783337 12.3585645,66.85782 18.2902634,72.7088156 C24.2219624,78.5601405 32.1087521,81.7823039 40.4975831,81.7823039 C48.8864141,81.7823039 56.7732038,78.5601405 62.7049028,72.7088156 C68.6366017,66.85782 71.9035425,59.0783337 71.9035425,50.8039657 C71.9035425,44.6536221 70.0987147,38.7768588 66.7363281,33.7622114 L66.7363281,46.3922262 C66.9825986,47.8359238 67.1082,49.3104098 67.1082,50.803949 C67.1082,57.8151429 64.3401,64.4064286 59.3142,69.3642449 C54.288,74.3220612 47.6055,77.0522041 40.4976,77.0522041 C33.3897,77.0522041 26.7072,74.3220612 21.6813,69.3642449 C16.6551,64.4064286 13.887,57.8151429 13.887,50.803949 C13.887,43.7924592 16.6551,37.2008776 21.6813,32.2433571 C25.8420115,28.1390089 31.1380611,25.5613796 36.8709109,24.7955518 C37.6498947,22.9842417 38.7483364,21.3054213 40.1376196,19.8272775 Z" id="Fill-34" fill="#FFFFFF"></path>
            <g id="Group-42" transform="translate(15.000000, 1.000000)">
                <mask id="mask-2" fill="white">
                    <use xlink:href="#path-1"></use>
                </mask>
                <g id="Clip-36"></g>
                <path d="M17.8092,34.8547449 L17.8092,31.8721837 C17.8092,30.5020816 18.9354,29.3912041 20.3247,29.3912041 L23.3481,29.3912041 C20.289,29.3912041 17.8092,31.8372653 17.8092,34.8547449" id="Fill-50" fill="#FFFFFF" mask="url(#mask-2)"></path>
                <path d="M10.1208,43.8018367 L10.1208,40.7882041 C10.1208,39.4178061 11.247,38.3072245 12.6363,38.3072245 L17.8092,38.3072245 L17.7741,38.3382959 L15.6597,38.3382959 C12.6006,38.3382959 10.1208,40.7843571 10.1208,43.8018367" id="Fill-52" fill="#FFFFFF" mask="url(#mask-2)"></path>
                <path d="M2.4324,52.7492245 L2.4324,49.8009898 C2.4324,48.4308878 3.5586,47.3200102 4.9476,47.3200102 L7.347,47.3200102 C4.5819,47.6259898 2.4324,49.9400714 2.4324,52.7492245" id="Fill-54" fill="#FFFFFF" mask="url(#mask-2)"></path>
                <path d="M6.2766,48.2264082 C4.6827,48.2264082 3.3861,49.5053673 3.3861,51.0775816 L3.3861,76.9976633 C3.3861,77.2018469 3.5544,77.3678571 3.7614,77.3678571 L8.7918,77.3678571 C8.9988,77.3678571 9.1671,77.2018469 9.1671,76.9976633 L9.1671,48.5963061 C9.1671,48.3924184 8.9988,48.2264082 8.7918,48.2264082 L6.2766,48.2264082 Z M8.7918,79.2493061 L3.7614,79.2493061 C2.5026,79.2493061 1.4787,78.2393367 1.4787,76.9976633 L1.4787,51.0775816 C1.4787,48.4678776 3.6312,46.3449592 6.2766,46.3449592 L8.7918,46.3449592 C10.0506,46.3449592 11.0745,47.3549286 11.0745,48.5963061 L11.0745,76.9976633 C11.0745,78.2393367 10.0506,79.2493061 8.7918,79.2493061 L8.7918,79.2493061 Z" id="Fill-56" fill="#FFFFFF" mask="url(#mask-2)"></path>
                <path d="M13.965,39.2790204 C12.3711,39.2790204 11.0745,40.5579796 11.0745,42.1301939 L11.0745,76.9976633 C11.0745,77.2018469 11.2428,77.3678571 11.4498,77.3678571 L16.4805,77.3678571 C16.6872,77.3678571 16.8555,77.2018469 16.8555,76.9976633 L16.8555,39.6492143 C16.8555,39.4450306 16.6872,39.2790204 16.4805,39.2790204 L13.965,39.2790204 Z M16.4805,79.2493061 L11.4498,79.2493061 C10.191,79.2493061 9.1671,78.2393367 9.1671,76.9976633 L9.1671,42.1301939 C9.1671,39.5207857 11.3196,37.3975714 13.965,37.3975714 L16.4805,37.3975714 C17.739,37.3975714 18.7629,38.4078367 18.7629,39.6492143 L18.7629,76.9976633 C18.7629,78.2393367 17.739,79.2493061 16.4805,79.2493061 L16.4805,79.2493061 Z" id="Fill-57" fill="#FFFFFF" mask="url(#mask-2)"></path>
                <path d="M21.6534,30.3319286 C20.0595,30.3319286 18.7629,31.6108878 18.7629,33.183102 L18.7629,76.9976633 C18.7629,77.2018469 18.9312,77.3678571 19.1382,77.3678571 L24.1689,77.3678571 C24.3756,77.3678571 24.5439,77.2018469 24.5439,76.9976633 L24.5439,30.7018265 C24.5439,30.4979388 24.3756,30.3319286 24.1689,30.3319286 L21.6534,30.3319286 Z M24.1689,79.2493061 L19.1382,79.2493061 C17.8794,79.2493061 16.8555,78.2393367 16.8555,76.9976633 L16.8555,33.183102 C16.8555,30.573398 19.008,28.4504796 21.6534,28.4504796 L24.1689,28.4504796 C25.4274,28.4504796 26.4513,29.460449 26.4513,30.7018265 L26.4513,76.9976633 C26.4513,78.2393367 25.4274,79.2493061 24.1689,79.2493061 L24.1689,79.2493061 Z" id="Fill-58" fill="#FFFFFF" mask="url(#mask-2)"></path>
                <path d="M29.3418,21.3845408 C27.7479,21.3845408 26.4513,22.6637959 26.4513,24.2360102 L26.4513,76.9976633 C26.4513,77.2018469 26.6196,77.3678571 26.8266,77.3678571 L31.8573,77.3678571 C32.064,77.3678571 32.2323,77.2018469 32.2323,76.9976633 L32.2323,21.7547347 C32.2323,21.550551 32.064,21.3845408 31.8573,21.3845408 L29.3418,21.3845408 Z M31.8573,79.2493061 L26.8266,79.2493061 C25.5678,79.2493061 24.5439,78.2393367 24.5439,76.9976633 L24.5439,24.2360102 C24.5439,21.6263061 26.6964,19.5033878 29.3418,19.5033878 L31.8573,19.5033878 C33.1158,19.5033878 34.1397,20.5133571 34.1397,21.7547347 L34.1397,76.9976633 C34.1397,78.2393367 33.1158,79.2493061 31.8573,79.2493061 L31.8573,79.2493061 Z" id="Fill-59" fill="#FFFFFF" mask="url(#mask-2)"></path>
                <path d="M37.0305,12.437449 C35.4366,12.437449 34.1397,13.7164082 34.1397,15.2886224 L34.1397,76.9976633 C34.1397,77.2018469 34.308,77.3678571 34.515,77.3678571 L39.5457,77.3678571 C39.7527,77.3678571 39.921,77.2018469 39.921,76.9976633 L39.921,12.8073469 C39.921,12.6034592 39.7527,12.437449 39.5457,12.437449 L37.0305,12.437449 Z M39.5457,79.2493061 L34.515,79.2493061 C33.2562,79.2493061 32.2323,78.2393367 32.2323,76.9976633 L32.2323,15.2886224 C32.2323,12.6792143 34.3848,10.556 37.0305,10.556 L39.5457,10.556 C40.8042,10.556 41.8281,11.5659694 41.8281,12.8073469 L41.8281,76.9976633 C41.8281,78.2393367 40.8042,79.2493061 39.5457,79.2493061 L39.5457,79.2493061 Z" id="Fill-60" fill="#FFFFFF" mask="url(#mask-2)"></path>
                <path d="M44.7189,3.49006122 C43.125,3.49006122 41.8281,4.76931633 41.8281,6.34153061 L41.8281,76.9976633 C41.8281,77.2018469 41.9964,77.3678571 42.2034,77.3678571 L47.2341,77.3678571 C47.4411,77.3678571 47.6094,77.2018469 47.6094,76.9976633 L47.6094,6.34153061 C47.6094,4.76931633 46.3125,3.49006122 44.7189,3.49006122 Z M47.2341,79.2493061 L42.2034,79.2493061 C40.9449,79.2493061 39.921,78.2393367 39.921,76.9976633 L39.921,6.34153061 C39.921,3.73182653 42.0732,1.60890816 44.7189,1.60890816 C47.3643,1.60890816 49.5165,3.73182653 49.5165,6.34153061 L49.5165,76.9976633 C49.5165,78.2393367 48.4926,79.2493061 47.2341,79.2493061 L47.2341,79.2493061 Z" id="Fill-61" fill="#FFFFFF" mask="url(#mask-2)"></path>
            </g>
        </g>
    </g>
</svg>

<svg width="90" height="90" viewBox="0 0 90 90" xmlns="http://www.w3.org/2000/svg" xmlns:xlink="http://www.w3.org/1999/xlink"><title>community/card/logo/grader</title><defs><path d="M50.186 54.728c-4.566 10.376-11.08 19.474-24.65 19.474-13.57 0-20.054-9.81-24.651-18.26L2.432 2.548 50.186.25v54.478z" id="a"/></defs><g fill="none" fill-rule="evenodd"><path fill="#FFF" d="M73.702 77.347l-6.295 6.209-10.67-10.524 6.295-6.21 10.67 10.525M76.011 85.184l-.673.664a4.013 4.013 0 0 1-5.62 0l-1.311-1.292 6.295-6.209 1.31 1.293a3.883 3.883 0 0 1 0 5.544"/><path d="M40.138 19.827c-8.255.091-16.001 3.304-21.848 9.072-5.931 5.85-9.198 13.63-9.198 21.905 0 8.274 3.267 16.054 9.198 21.905 5.932 5.851 13.819 9.073 22.208 9.073 8.388 0 16.275-3.222 22.207-9.073 5.932-5.851 9.199-13.63 9.199-21.905 0-6.15-1.805-12.027-5.168-17.042v12.63c.247 1.444.372 2.918.372 4.412 0 7.011-2.768 13.602-7.794 18.56-5.026 4.958-11.709 7.688-18.816 7.688-7.108 0-13.79-2.73-18.817-7.688-5.026-4.958-7.794-11.549-7.794-18.56 0-7.012 2.768-13.603 7.794-18.56a26.547 26.547 0 0 1 15.19-7.448 17.135 17.135 0 0 1 3.267-4.969z" fill="#FFF"/><g transform="translate(15 1)"><mask id="b" fill="#fff"><use xlink:href="#a"/></mask><path d="M17.81 34.855v-2.983c0-1.37 1.125-2.48 2.515-2.48h3.023c-3.059 0-5.539 2.445-5.539 5.463M10.12 43.802v-3.014c0-1.37 1.127-2.48 2.516-2.48h5.173l-.035.03H15.66c-3.06 0-5.54 2.446-5.54 5.464M2.432 52.75V49.8c0-1.37 1.127-2.481 2.516-2.481h2.399c-2.765.306-4.915 2.62-4.915 5.43" fill="#FFF" mask="url(#b)"/><path d="M6.277 48.226c-1.594 0-2.89 1.28-2.89 2.852v25.92c0 .204.167.37.374.37h5.03a.373.373 0 0 0 .376-.37V48.596a.373.373 0 0 0-.375-.37H6.277zM8.792 79.25h-5.03c-1.26 0-2.283-1.01-2.283-2.251v-25.92c0-2.61 2.152-4.733 4.798-4.733h2.515c1.259 0 2.283 1.01 2.283 2.251v28.402c0 1.241-1.024 2.251-2.283 2.251z" fill="#FFF" mask="url(#b)"/><path d="M13.965 39.279c-1.594 0-2.89 1.279-2.89 2.851v34.868c0 .204.168.37.375.37h5.03a.373.373 0 0 0 .375-.37V39.649a.373.373 0 0 0-.375-.37h-2.515zm2.515 39.97h-5.03c-1.259 0-2.283-1.01-2.283-2.251V42.13c0-2.61 2.153-4.732 4.798-4.732h2.515c1.259 0 2.283 1.01 2.283 2.251v37.349c0 1.241-1.024 2.251-2.283 2.251z" fill="#FFF" mask="url(#b)"/><path d="M21.653 30.332c-1.593 0-2.89 1.279-2.89 2.851v43.815c0 .204.168.37.375.37h5.03a.373.373 0 0 0 .376-.37V30.702a.373.373 0 0 0-.375-.37h-2.516zm2.516 48.917h-5.03c-1.26 0-2.284-1.01-2.284-2.251V33.183c0-2.61 2.153-4.733 4.798-4.733h2.516c1.258 0 2.282 1.01 2.282 2.252v46.296c0 1.241-1.024 2.251-2.282 2.251z" fill="#FFF" mask="url(#b)"/><path d="M29.342 21.385c-1.594 0-2.89 1.279-2.89 2.851v52.762c0 .204.168.37.375.37h5.03a.373.373 0 0 0 .375-.37V21.755a.373.373 0 0 0-.375-.37h-2.515zm2.515 57.864h-5.03c-1.26 0-2.283-1.01-2.283-2.251V24.236c0-2.61 2.152-4.733 4.798-4.733h2.515c1.259 0 2.283 1.01 2.283 2.252v55.243c0 1.241-1.024 2.251-2.283 2.251z" fill="#FFF" mask="url(#b)"/><path d="M37.03 12.437c-1.593 0-2.89 1.28-2.89 2.852v61.709c0 .204.168.37.375.37h5.03a.373.373 0 0 0 .376-.37v-64.19a.373.373 0 0 0-.375-.37H37.03zm2.516 66.812h-5.031c-1.259 0-2.283-1.01-2.283-2.251v-61.71c0-2.609 2.153-4.732 4.799-4.732h2.515c1.258 0 2.282 1.01 2.282 2.251v64.19c0 1.242-1.024 2.252-2.282 2.252z" fill="#FFF" mask="url(#b)"/><path d="M44.719 3.49c-1.594 0-2.89 1.28-2.89 2.852v70.656c0 .204.167.37.374.37h5.031a.373.373 0 0 0 .375-.37V6.342c0-1.573-1.297-2.852-2.89-2.852zm2.515 75.76h-5.03c-1.26 0-2.283-1.01-2.283-2.252V6.342c0-2.61 2.152-4.733 4.798-4.733 2.645 0 4.797 2.123 4.797 4.733v70.656c0 1.241-1.023 2.251-2.282 2.251z" fill="#FFF" mask="url(#b)"/></g></g></svg>
